X: 18953
T: Iníon Ní Scannláin
R: waltz
M: 3/4
K: Gmajor
|:G3 A AG|BG E3F|G3A AG|(3Bcd dG (3Bcd|
e3g fd|de ed (3BAG|A3G AB|1 Bd de BA:|2 Bd dG (3Bcd||
|:e3 a ab|g3f ge|d3 e fg|BA G2 (3Bcd|
e3 a ab|g3d e/f/g/a/|b6|bd ad gd|
e3 g fd|e3d (3BAG|A3G AB|Bd de BG|
A3B AG|DE ED (3EFG|A3G AB|Bd de BA||

